static/assets/images/shapes/link-yellow.svg

<svg xmlns="http://www.w3.org/2000/svg" width="448" height="97" fill="none"><g clip-path="url(#a)"><path fill="#F4D06F" d="M25 96.51c68.03-24.93 142.22-23.65 213.42-17.46 15.11 1.13 31.1 1.69 44.3-6.47 17.31-10.92 24.22-31.21 38.24-45.61 13.36-14.61 31.84-17.19 50.53-17.59 17.66-.57 36.58.46 52.06-9.38-26.39 18.79-62.84 4.48-89.91 21.24-20.05 13.21-26.25 39.19-45.44 53.45-14.27 10.65-33.32 10.71-50.16 9.34C167.01 77.66 94.01 75.51 25 96.51"/></g><defs><clipPath id="a"><path fill="#fff" d="M0 0h448v96.51H0z"/></clipPath></defs></svg>

<svg width="448" height="97" viewBox="0 0 448 97" fill="none" xmlns="http://www.w3.org/2000/svg">
<g clip-path="url(#clip0_678_8719)">
<path d="M25 96.51C93.03 71.58 167.22 72.86 238.42 79.05C253.53 80.18 269.52 80.74 282.72 72.58C300.03 61.66 306.94 41.37 320.96 26.97C334.32 12.36 352.8 9.78 371.49 9.38C389.15 8.81 408.07 9.84 423.55 0C397.16 18.79 360.71 4.48 333.64 21.24C313.59 34.45 307.39 60.43 288.2 74.69C273.93 85.34 254.88 85.4 238.04 84.03C167.01 77.66 94.01 75.51 25 96.51Z" fill="#F4D06F"/>
</g>
<defs>
<clipPath id="clip0_678_8719">
<rect width="448" height="96.51" fill="white"/>
</clipPath>
</defs>
</svg>
